mustache.svg

<svg fill="currentColor" viewBox="0 0 24 24"><path d="M21 12c-2 0-3-3-6-3s-3 2-3 2 0-2-3-2-4 3-6 3c-1 0-2-1-2-1s1 5 5 5c5 0 6-3 6-3s1 3 6 3c4 0 5-5 5-5s-1 1-2 1"/></svg>

<svg  viewBox="0 0 24 24" fill="currentColor"><path  d="M21 12C19 12 18 9 15 9S12 11 12 11 12 9 9 9 5 12 3 12C2 12 1 11 1 11S2 16 6 16C11 16 12 13 12 13S13 16 18 16C22 16 23 11 23 11S22 12 21 12Z"/></svg>
